X:1
T:James Gibb editions
T:Qué buen año - Guerrero
T:#
%%score [ 1 2 3 ]
L:1/8
Q:1/4=91
M:3/4
K:C
V:1 treble nm="Soprano I" snm="S I"
V:2 treble nm="Soprano II" snm="S II"
V:3 treble nm="Alto" snm="A"
V:1
"^Francisco Guerrero\n(1528-99)" e6- |"^¡Qué buen año es el del cielo!" e2 d4 | f4 e2 | c2 d4 | %4
w: ¡Qué|* buen|a- ño~~es|el del|
w: Si|* que-|réis go-|zar del|
 e4 e2 | g6- | g2 f2 e2 | d6 | c4 z2 | z6 | z2 e2 f2 | g2 f2 e2- | e2 d2 c2 | B4 B2 | z6 | z2 B4 | %16
w: cíe- lo!|Al\-|* ma, go-|zal-|de,||pues del|cie- lo~~hay pan|* en el|sue- lo||y|
w: cie- lo,|al\-|* ma, gus-|tal-|de,||||||||
 d2 e2 c2 | d6 | c4 e2- | e2 d4 | f4 e2 | c2 d4 | e2 e2 c2- | c2 B4 | A4 c2 | c2 A4 | B4 B2 | e6- | %28
w: dan- lo de|bal-|de. ¡Qué|* buen|a- ño~~es|el del|cie- lo! ¡Qué|* buen|a- ño~~es|el del|cie- lo!|Al\-|
w: ||||||||||||
 e2 d2 c2 | (B4 c2- | c2 B4) | c2 c2 d2 | e2 d2 c2- | c2 B2 A2 | B4 B2 | z2 B4 | d4 d2 | A2 c4 | %38
w: * ma, go-|zal\- *||de, pues del|cie- lo~~hay pan|* en el|sue- lo|y|dan- lo|de bal-|
w: ||||||||||
 B2 G2 g2- | g2 g2 e2 | (f6 | d6) | c6!fine! |] e6- | e2 d2 c2 | d4 c2- | c2 A4 | G4 B2 | A4 c2 | %49
w: de, y dan\-|* lo de|bal\-||de.|Al\-|* ma, lle-|gad a|* gus-|tar, que|so- la-|
w: |||||||||||
 B6 | B6 | z2 d4 | d2 d2 d2 | c2 A4 | G4 g2- | g2 f4 | d6 | c6!D.C.! |] %58
w: men-|te|ha|de cos- tar|el lle-|gar lim\-|* pia-|men-|te.|
w: |||||||||
V:2
 z6 | z6 | z6 | z6 | z6 | z6 | z6 | z6 | z2 c2 d2 | e2 d2 c2- | c2 B2 A2 | B4 B2 | z2 B4 | d4 d2 | %14
w: ||||||||pues del|cie- lo~~hay pan|* en el|sue- lo|y|dan- lo|
 A2 c4 | B2 d4 | B2 B2 c2 | B6 | c6 | z6 | z6 | z6 | z4 e2- | e2 d4 | f4 e2 | c2 d4 | e4 e2 | z6 | %28
w: de bal-|de, y|dan- lo de|bal|de.||||¡Qué|* buen|a- ño~~es|el del|cie- lo!||
 g6- | g2 f2 e2 | d6 | c4 z2 | z6 | z2 e2 f2 | g2 f2 e2- | e2 d2 c2 | B4 B2 | z6 | z2 B4 | %39
w: Al\-|* ma, go-|zal-|de,||pues del|cie- lo~~hay pan|* en el|sue- lo||y|
 d2 e2 c2 | (d4 c2- | c2 B4) | c6 |] c6- | c2 B2 A2 | B4 G2- | G2 ^F4 | G4 g2 | f4 e2 | d6 | d6 | %51
w: dan- lo de|bal\- *||de.|Al\-|* ma, lle-|gad a|* gus-|tar, que|so- la-|men-|te|
 z2 B4 | B2 A2 B2 | G4 ^F2 | G6 | c4 c2 | B6 | c6 |] %58
w: ha|de cos- tar|el lle-|gar|lim- pia-|men-|te.|
V:3
 z6 | z6 | z6 | z6 | z6 | z6 | z6 | z6 | z2 A2 B2 | c2 B2 A2- | A2 G2 F2 | E4 E2 | E2 G4 | G4 D2 | %14
w: ||||||||pues del|cie- lo~~hay pan|* en el|sue- lo|y dan-|lo de|
 F4 E2 | G4 G2- | G2 E2 A2 | G6 | C4 c2- | c2 B4 | d4 c2 | A2 B4 | c4 c2 | C2 G4 | F4 A2 | A2 F4 | %26
w: bal- de,|y dan\-|* lo de|bal-|de. ¡Qué|* buen|a- ño~~es|el del|cie- lo!|¡Qué buen|a- ño~~es|el del|
 G4 G2 | c6- | c2 B2 A2 | G6 | G6 | z2 A2 B2 | c2 B2 A2- | A2 G2 F2 | E4 E2 | E2 G4 | G4 D2 | %37
w: cie- lo!|Al\-|* ma, go-|zal-|de,|pues del|cie- lo~~hay pan|* en el|sue- lo|y dan-|lo de|
 F4 E2 | G4 G2- | G2 E2 A2 | (F6 | G6) | C6 |] C6- | C2 G2 A2 | G4 C2- | C2 D4 | E4 E2 | F4 C2 | %49
w: bal- de,|y dan\-|* lo de|bal\-||de.|Al\-|* ma, lle-|gad a|* gus-|tar, que|so- la-|
 G6 | G6 | z2 G4 | G2 ^F2 G2 | C2 D4 | E4 E2- | E2 F4 | G6 | C6 |] %58
w: men-|te|ha|de cos- tar|el lle-|gar lim\-|* pia-|men-|te.|

